X:15316
T:Sheila Coyle's Reel
R:Reel
S:(Unknown Fiddle)
H:
N:No recollection of where this was transcribed from.
D:
Z:Adrian Scahill
M:4/4
L:1/8
K:D
FAA2 FADA|FAdc BAGF|GBB2 GBdB|ABdf ecAG|\
FAA2 FADA|(3FFF DF A2(3DEF|GABG FAdB|AFEG FDD2:||\
dffe f3e|dcdB AFD2|ce (3eee ceAc|B2^GB AFD2|\
dffe f3e|dcdB AFDF|GABG FAdB|AFEG FDDE:||
